X:8
T:Reel a Michel
R:reel
S:Romain Ch&amp;eacute;r&amp;eacute;
M:C|
K:D
A2 dA fAdA|=c2 ec g=ce=c|A2 dA fAdA|~f3 e dAB=c:|
~f3 e dAB=c|A3 G EFGE|~F3 G AB=cA|d=cAG FDDA|
~f3 e dAB=c|A3 G EFGE|~F3 G AB=cA|dcde dcd:|
